X: 3
T:Reel. WI.003
M:2/4
Q:100
S:Wm Irwin, 1838 MS, AGG's Transcription
R:Reel
O:England
A:Lake District
Z:vmp.Chris Partington.2005
K:G
d|gdBd |gdBd|cBcd|edd2|gdBd |gdBd|cedc|BGG:|!
|:d|gdgb|afdf|geag|fddf|edeg|dBGB|FAdc|BGG:|]
